X:1
P:Memories of Fr Angus MacDonell
C:Mike MacDougall
C:from Aly Bain, Phil Cunningham "The Pearl"
R:Strathspey
C:arr. Terry Traub 10-16-02
M:4/4
K:G
L: 1/8
|: (3DEF|"G"G2 G>A "C"G>F E<D|"G"B<d d>B d2 (3Bcd|"C"e>c "G"d>B "D"c>A "G"B<G|"C  D"E3 (3DEF|
"Em"G2 G>A "C"G>F E<D|"G"B<d d>B d2 "C"g>e|"G"d>B GG A<B|"G C G"G3 :|
|: A B<d|"C"e2 e>f g>f e<d|"G"B<d d>B d2 (3Bcd|"C"e>c "G"d>B "D"c>A "G"B<G|"C  D"E3 (3DEF|
"Em"G2 G>A "C"G>F E<D|"G"B<d d>B d2 "C"g>e|"G"d>B GG A<B|"G C G"G3 :|
